modules/coreui-icons-free/icons/resize-height.svg

<!-- Generated by IcoMoon.io -->
<svg version="1.1" xmlns="http://www.w3.org/2000/svg" width="24" height="24" viewBox="0 0 24 24">
<title>resize-height</title>
<path d="M12.011 23.625l-6.386-6.386v-1.789h3.375v-6.75h-3.375v-1.811l6.364-6.364 6.386 6.386v1.789h-3.375v6.75h3.375v1.811zM7.458 16.95l4.553 4.553 4.553-4.553h-3.064v-9.75h3.042l-4.553-4.553-4.553 4.553h3.064v9.75z"></path>
</svg>

<svg xmlns="http://www.w3.org/2000/svg" width="24" height="24" viewBox="0 0 24 24"><path d="M12.011 23.625l-6.386-6.386V15.45H9V8.7H5.625V6.889L11.989.525l6.386 6.386V8.7H15v6.75h3.375v1.811zM7.458 16.95l4.553 4.553 4.553-4.553H13.5V7.2h3.042l-4.553-4.553L7.436 7.2H10.5v9.75z"/></svg>
